!!!COM:	Bach, Johann Sebastian
!!!CDT:	1685/02/21/-1750/07/28/
!!!OTL@@DE:	Komm, Gott Sch&ouml;pfer, heiliger Geist
!!!SCT:	BWV 370
!!!PC#:	187
!!!AGN:	chorale
**kern	**kern	**kern	**kern
*ICvox	*ICvox	*ICvox	*ICvox
*Ibass	*Itenor	*Ialto	*Isoprn
*I"Bass	*I"Tenor	*I"Alto	*I"Soprano
*	*oclefC4	*oclefC3	*oclefC1
*clefF4	*clefGv2	*clefG2	*clefG2
*k[]	*k[]	*k[]	*k[]
*G:mix	*G:mix	*G:mix	*G:mix
*M4/4	*M4/4	*M4/4	*M4/4
*met(c)	*met(c)	*met(c)	*met(c)
*MM100	*MM100	*MM100	*MM100
4G	4B	8dL	4g
.	.	8eJ	.
=1	=1	=1	=1
4F	4c	[4f	4a
4C	4c	8fL]	4g
.	.	[8eJ	.
4D	4A	8eL]	4f
.	.	16dL	.
.	.	16cJJ	.
4E	8GL	8BL	4g
.	16cL	[8eJ	.
.	16BJJ	.	.
=2	=2	=2	=2
4AA	8cL	8eL]	4cc
.	8fJ	8cJ	.
4GG	4B	8gL	4dd
.	.	8fJ	.
4C;	4G;	4e;	4cc;
4F	4A	8cL	4cc
.	.	8dJ	.
=3	=3	=3	=3
4E	8BL	4e	4g
.	8cJ	.	.
4D	4d	4f	4b
4.C	4e	4g	4cc
.	[4d	4g	4dd
8BB	.	.	.
=4	=4	=4	=4
4C	8dL]	[4g	4ee
.	16cL	.	.
.	16BJJ	.	.
4CC	8cL	8gL]	4ee
.	8AJ	8f#J	.
4GG;	4B;	4g;	4dd;
4G	4B	4g	4dd
=5	=5	=5	=5
4C	8cL	4g	8eeL
.	8BJ	.	8ddJ
4E	4c	[4g	4cc
4F	4c	8gL]	4a
.	.	[8fnXJ	.
4c	4c	8fL]	4g
.	.	8eJ	.
=6	=6	=6	=6
8GL	4d	4g	4b
8FJ	.	.	.
4E	4e	4g	4cc#
4D;	4f;	4a;	4dd;
4E	4B	4e	4g
=7	=7	=7	=7
8AAL	4A	8eL	4ccnX
8BBJ	.	8dJ	.
4C	4A	[4e	4a
4D	8AL	8eL]	4f
.	8B-J	16dL	.
.	.	16eJJ	.
4AA	4c	[4f	4a
=8	=8	=8	=8
4BBnX	[4d	4f]	2g
4C	8dL]	4e	.
.	[8cJ	.	.
4GG;	8cL]	4d;	4g;
.	8BnX;J	.	.
==	==	==	==
*-	*-	*-	*-
!!!YOR1: 371 vierstimmige Choralges&auml;nge von Johann Sebastian Bach, 
!!!YOR2: 4th ed. by Alfred D&ouml;rffel (Leipzig: Breitkopf und H&auml;rtel, 
!!!YOR2: c.1875). 178 pp. Plate "V.A.10".  reprint: J.S. Bach, 371 Four-Part 
!!!YOR4: Chorales (New York: Associated Music Publishers, Inc., c.1940).
!!!SMS: B&H, 4th ed, Alfred D&ouml;rffel, c.1875, plate V.A.10
!!!EED:  Craig Stuart Sapp
!!!EEV:  2009/05/22
